!!!!SEGMENT: pl-kk--kk-i-111--012-001_anonim--deo-gratias-de-martyribus-1mum.krn
!!!cenid: 18xx:2581
!!!COM: Anonim
!!!COM-rismID: pe30004985
!!!CDT:
!!!CNT:
!!!GTL: Deo gratias
!!!OTL: De Martyribus 1mum
!!!OMV: 001
!!!PDT: 1824
!!!AGN: Sacred
!!!YEC: Copyright 2022 Narodowy Instytut Fryderyka Chopina (https://polishscores.org)
!!!YEM: License CC-BY-4.0 (https://creativecommons.org/licenses/by/4.0)
!!!SMS-siglum: PL-Kk
!!!SMS-shelfmark: Kk.I.111
!!!SMS-shelfwork: 012-001 G
!!!SMS-variant:
!!!SMS-altvar:
!!!NIFC-rismSourceID: 1001156407
!!!NIFC-rismChildID: 1001157696
!!!NIFC-islandoraID: pl-kk:3371
!!!URL-pdf-islandora: https://repozytorium.nifc.pl/islandora/object/pl-kk%3A3371/datastream/PDF/view
!!!URL-scan: https://polish.musicsources.pl/pl/lokalizacje/galeria/rekopisy/5747 @EN{Scan on Polish Music Sources Website} @PL{Skany w portalu Dziedzictwo Muzyki Polskiej w otwartym dostępie}
!!!IIIF:
!!!ONB-nifc: UWAGA: A, T1, T2. Podział na poszególne Deo gratias. A: skan 0004 (m.in)
!!!AIN: 1 alto 2 tenor
!!!key:
**kern	**text	**kern	**text	**kern	**text
*part3	*	*part2	*	*part1	*
*staff3	*	*staff2	*	*staff1	*
*Itenor	*	*Itenor	*	*Ialto	*
*I"Tenore Vagante.	*	*I"Tenore Chorale.	*	*I"Alto.	*
*I'T 2	*	*I'T 1	*	*I'A	*
*clefC4	*	*clefC4	*	*clefC3	*
*k[b-]	*	*k[b-]	*	*k[b-]	*
*D:	*	*D:	*	*D:	*
*M2/1	*	*M2/1	*	*M2/1	*
*met(c|)	*	*met(c|)	*	*met(c|)	*
*all\right	*	*all\right	*	*all\right	*
*2\right	*	*2\right	*	*2\right	*
=1-	=1-	=1-	=1-	=1-	=1-
!LO:TX:t=P:problem=2\right&colon; global	!	!	!	!	!
*	*	*lig	*	*	*
!	!	!	!	!LO:TX:t=P:problem=kreska pseudotaktowa	!
2.d\	De-	1A	De-	1f#X	De-
!LO:TX:t=P:problem=kreska pseudotaktowa	!	!	!	!	!
4c\	.	.	.	.	.
!	!	!LO:TX:a:t=P:problem=♭ above	!	!LO:TX:t=P:problem=kreska pseudotaktowa	!
4B-\	-o	1B-X	.	1g	.
4A\	.	.	.	.	.
!LO:TX:t=P:problem=kreska pseudotaktowa	!	!	!	!	!
2G/	.	.	.	.	.
=2	=2-	=2	=2-	=2	=2-
!	!	!	!	!LO:TX:t=P:problem=2\right&colon; global	!
2F#X/	gra-	1A	.	2d\	-o
!LO:TX:t=P:problem=kreska pseudotaktowa	!	!	!	!	!
2d\	.	.	.	1d	gra-
!	!	!LO:TX:t=P:problem=kreska pseudotaktowa	!	!	!
2G/	.	1G	.	.	.
!LO:TX:t=P:problem=kreska pseudotaktowa	!	!	!	!LO:TX:t=P:problem=kreska pseudotaktowa	!
2c\	-ti-	.	.	2c\	-ti-
*	*	*Xlig	*	*	*
=3	=3-	=3	=3-	=3	=3-
*	*	*lig	*	*	*
2Fn/	-as	1A	-o	2d\	-as
!LO:TX:t=P::problem=kreska pseudotaktowa&colon;między nutą a kropką	!	!	!	!LO:TX:t=P::problem=kreska pseudotaktowa&colon;między nutą a kropką	!
2.D/	De-	.	.	2.a\	De-
!	!	!LO:TX:t=P:problem=kreska pseudotaktowa	!	!	!
.	.	1D	.	.	.
4E/	.	.	.	4g\	.
4F/	.	.	.	4f\	.
!LO:TX:t=P:problem=kreska pseudotaktowa	!	!	!	!LO:TX:t=P:problem=kreska pseudotaktowa	!
4G/	-o	.	.	4e\	.
*	*	*Xlig	*	*	*
=4	=4-	=4	=4-	=4	=4-
*	*	*lig	*	*	*
2A\	gra-	1F	gra-	4d\	-o
.	.	.	.	4e\	.
1d	.	.	.	4fn\	.
!	!	!	!	!LO:TX:t=P:problem=kreska pseudotaktowa	!
.	.	.	.	4d\	.
.	.	1G	.	2.g\	gra-
!LO:TX:t=P:problem=kreska pseudotaktowa	!	!	!	!	!
2c\	-ti-	.	.	.	.
!	!	!	!	!LO:TX:t=P:problem=kreska pseudotaktowa	!
.	.	.	.	4g\	-ti-
=5	=5-	=5-	=5-	=5	=5-
!LO:TX:t=P:problem=kreska pseudotaktowa	!	!	!	!	!
1d	-as	1A	.	2f\	-as
!	!	!	!	!LO:TX:t=P:problem=kreska pseudotaktowa	!
.	.	.	.	2a\	De-
!	!	!LO:TX:t=P:problem=kreska pseudotaktowa	!	!	!
!	!	!LO:TX:a:t=P:problem=♭ above	!	!LO:TX:t=P:problem=kreska pseudotaktowa	!
2r	.	1B-X	.	1g	-o
1d\	De-	.	.	.	.
*	*	*Xlig	*	*	*
=6-	=6-	=6	=6-	=6	=6-
*	*	*lig	*	*	*
!	!	!	!	!LO:TX:t=P:problem=kreska pseudotaktowa	!
.	.	1A	.	1f	gra-
1c	.	.	.	.	.
!	!	!LO:TX:t=P:problem=kreska pseudotaktowa	!	!LO:TX:t=P:problem=kreska pseudotaktowa	!
.	.	1G	.	1e	.
1B-\	.	.	.	.	.
*	*	*Xlig	*	*	*
=7-	=7-	=7	=7-	=7	=7-
!	!	!LO:TX:t=P:problem=kreska pseudotaktowa	!	!	!
.	.	1F	.	1.d	-ti-
1A	.	.	.	.	.
!	!	!LO:TX:t=P:problem=kreska pseudotaktowa	!	!	!
.	.	1E	.	.	.
!LO:TX:t=P:problem=kreska pseudotaktowa	!	!	!	!LO:TX:t=P:problem=kreska pseudotaktowa	!
2A\	-o	.	.	2c#X\	-as
=8	=8-	=8	=8-	=8	=8-
!	!	!LO:TX:t=P:problem=kreska pseudotaktowa	!	!	!
2F/	gra-	1D	.	2d\	De-
!LO:TX:t=P:problem=kreska pseudotaktowa	!	!	!	!LO:TX:t=P:problem=kreska pseudotaktowa	!
2G/	.	.	.	2g\	-o
2.A\	.	2.C#X/	.	2.e\	gra-
!LO:TX:t=P:problem=kreska pseudotaktowa	!	!LO:TX:t=P:problem=kreska pseudotaktowa	!	!LO:TX:t=P:problem=kreska pseudotaktowa	!
4A\	-ti-	4C#/	-ti-	4e\	-ti-
=9	=9-	=9	=9-	=9	=9-
0A;	-as.	0D	-as	0f#X;	-as.
==	==	==	==	==	==
*-	*-	*-	*-	*-	*-
!!!system-decoration: [(s1,s2,s3)]
!!!ENC: Kamil Watkowski
!!!END: 2021-08-04
